X:2
T:The Cotillion
C:Trad (Bosham Band)
M:4/4
L:1/8
K:G
[V:1] G4 d4 | B2AB G2AB | c2B2 A2G2 | FGAF D3 D |
[V:2] D4 B,4| D4   B,4  | E4   D4   | D4   A,3z |
